X:1
T:Björnlåten
R:Polska
O:Lappland
S:Alfred Nilsson
B:Slatta nr 264
Q:150
M:3/4
L:1/8
K:D
|: D2 FA FA | DD FA d2 | D2 FA FA | A,A, C[CE] D2 |
| D2 [FA]A [FA]A | DD FA d2 | (d{ed}c) (BA) GB |(BA) [A4A4] :|
K:Dm
|:(A=B/^c/) d^f e2 | (e^f/^g/) ga =f2 | {fg}(fe/f/) ag e^c | d2 (d^c) A2 |
|(A=B/^c/) d^f e2 | (e^f/^g/) ga =f2 |  {/g}(fe/f/) ag e^c | [D2d2] [^F4d4] :|

